assets/images/svgs/twitter.svg

<svg width="26" height="22" viewBox="0 0 26 22" fill="none" xmlns="http://www.w3.org/2000/svg">
<path d="M8.23828 21.7721C17.9238 21.7721 23.2214 13.7477 23.2214 6.78895C23.2214 6.56103 23.2215 6.33414 23.2061 6.10828C24.2367 5.36282 25.1263 4.43982 25.8333 3.38247C24.8722 3.80834 23.8527 4.08762 22.8087 4.21099C23.908 3.55288 24.7308 2.51779 25.1239 1.29834C24.0902 1.91173 22.9593 2.34401 21.78 2.57654C20.986 1.7323 19.936 1.17326 18.7923 0.98594C17.6486 0.798619 16.475 0.993458 15.4532 1.54031C14.4314 2.08715 13.6183 2.95552 13.1398 4.01104C12.6612 5.06655 12.5439 6.25037 12.8059 7.37929C10.7123 7.27433 8.66414 6.73026 6.79441 5.7824C4.92469 4.83454 3.2752 3.50408 1.95303 1.87738C1.27963 3.03665 1.07338 4.409 1.37627 5.715C1.67917 7.021 2.46844 8.16246 3.58337 8.90697C2.74535 8.88213 1.92559 8.65606 1.19329 8.24785C1.19329 8.26941 1.19329 8.29199 1.19329 8.31458C1.19363 9.53038 1.61449 10.7086 2.38452 11.6495C3.15454 12.5904 4.2263 13.2359 5.41803 13.4767C4.64276 13.6881 3.82934 13.719 3.04027 13.567C3.37677 14.6134 4.03189 15.5284 4.914 16.1841C5.79612 16.8398 6.86112 17.2034 7.96005 17.224C6.09535 18.6895 3.79185 19.4851 1.42019 19.4827C1.00121 19.4819 0.582635 19.4565 0.166626 19.4067C2.57481 20.9521 5.37687 21.7718 8.23828 21.768" fill="#1DA1F2"/>
</svg>

<svg width="26" height="22" fill="none" xmlns="http://www.w3.org/2000/svg"><path d="M8.238 21.772c9.686 0 14.983-8.024 14.983-14.983 0-.228 0-.455-.015-.68a10.714 10.714 0 0 0 2.627-2.727 10.51 10.51 0 0 1-3.024.829 5.284 5.284 0 0 0 2.315-2.913 10.553 10.553 0 0 1-3.344 1.279 5.27 5.27 0 0 0-8.974 4.802A14.95 14.95 0 0 1 1.953 1.877a5.27 5.27 0 0 0 1.63 7.03 5.227 5.227 0 0 1-2.39-.66v.068a5.268 5.268 0 0 0 4.225 5.162 5.258 5.258 0 0 1-2.378.09 5.272 5.272 0 0 0 4.92 3.657 10.566 10.566 0 0 1-7.793 2.183 14.908 14.908 0 0 0 8.071 2.361" fill="#1DA1F2"/></svg>
